X:1
M:3/4
K:D
A|d2c|Bcd|A2G|FED|G2E|FGA|C2D|E2A|
d2c|Bcd|A2G|FED|G2E|FGA|D2C|D2D:|
BGA cAG|A3 d2c|dcB cAB|G3 -G2E|FED DEB|
B2d c2e|dcB AFF|A3 A3|A2A BAG|F3 E2F|G3 -G3|\
A3 -G2||